brandFactory_export/1.Light/Salir pantalla completa_1Light.svg

<?xml version="1.0" encoding="UTF-8"?>
<svg width="24px" height="24px" viewBox="0 0 24 24" version="1.1" xmlns="http://www.w3.org/2000/svg" xmlns:xlink="http://www.w3.org/1999/xlink">
    <title>1.Light/Salir pantalla completa_1Light</title>
    <g id="Symbols" stroke="none" stroke-width="1" fill="none" fill-rule="evenodd">
        <g id="1.Light/Salir-pantalla-completa_1Light" fill="#5CB615" fill-rule="nonzero">
            <path d="M22.9277311,15.6201681 C23.3109244,15.6201681 23.6235294,15.9327731 23.6235294,16.3159664 C23.6235294,16.6991597 23.3109244,17.0117647 22.9277311,17.0117647 L17.0084034,17.0117647 L17.0084034,22.9310924 C17.0084034,23.3142857 16.6957983,23.6268908 16.312605,23.6268908 C15.9294118,23.6268908 15.6168067,23.3142857 15.6168067,22.9310924 L15.6168067,16.3159664 C15.6168067,15.9327731 15.9260504,15.6201681 16.3092437,15.6201681 L22.9277311,15.6201681 Z M7.30756303,15.6201681 C7.6907563,15.6201681 8.00336134,15.9294118 8.00336134,16.312605 L8.00336134,22.9277311 C8.00336134,23.3109244 7.6907563,23.6235294 7.30756303,23.6235294 C6.92436975,23.6235294 6.61176471,23.3109244 6.61176471,22.9277311 L6.61176471,17.0084034 L0.695798319,17.0084034 C0.312605042,17.0084034 0,16.6991597 0,16.312605 C0,15.9260504 0.312605042,15.6168067 0.695798319,15.6168067 C0.695798319,15.6201681 7.30756303,15.6201681 7.30756303,15.6201681 L7.30756303,15.6201681 Z M7.30756303,0 C7.6907563,0 8.00336134,0.309243697 8.00336134,0.692436975 L8.00336134,7.30756303 C7.99663866,7.68739496 7.6907563,7.99663866 7.31092437,8.00336134 L0.695798319,8.00336134 C0.312605042,8.00336134 0,7.69411765 0,7.31092437 C0,6.92773109 0.312605042,6.61512605 0.695798319,6.61512605 L6.61512605,6.61512605 L6.61512605,0.695798319 C6.61512605,0.309243697 6.92436975,0 7.30756303,0 Z M16.3159664,8.00336134 C15.9327731,8.00336134 15.6201681,7.69411765 15.6201681,7.31092437 L15.6201681,0.695798319 C15.6201681,0.312605042 15.9327731,0 16.3159664,0 C16.6991597,0 17.0084034,0.312605042 17.0084034,0.695798319 L17.0084034,6.61512605 L22.9277311,6.61512605 C23.3109244,6.61512605 23.6235294,6.92773109 23.6235294,7.31092437 C23.6235294,7.69411765 23.3109244,8.00672269 22.9277311,8.00672269 L16.3159664,8.00672269 L16.3159664,8.00336134 Z" id="Salir-pantalla-completa_1Light"></path>
        </g>
    </g>
</svg>

<svg width="24" height="24" viewBox="0 0 24 24" xmlns="http://www.w3.org/2000/svg"><path d="M22.928 15.62c.383 0 .696.313.696.696a.697.697 0 01-.696.696h-5.92v5.92a.697.697 0 01-.695.695.697.697 0 01-.696-.696v-6.615c0-.383.31-.696.692-.696h6.619zm-15.62 0c.383 0 .695.31.695.693v6.615a.697.697 0 01-.695.696.697.697 0 01-.696-.696v-5.92H.696a.695.695 0 110-1.391c0 .003 6.612.003 6.612.003zm0-15.62c.383 0 .695.31.695.692v6.616a.708.708 0 01-.692.695H.696a.694.694 0 110-1.388h5.92V.695c0-.386.308-.695.692-.695zm9.008 8.003a.694.694 0 01-.696-.692V.696a.694.694 0 111.388 0v5.92h5.92c.383 0 .696.312.696.695a.697.697 0 01-.696.696h-6.612v-.004z" fill="#5CB615" fill-rule="nonzero"/></svg>
